X:33
T:Slow March from 2nd no York Regt Militia,2voices. JGi.033
M:C
L:1/8
Q:1/4=110
S:Joshua Gibbons MS,1823,Tealby,Lincs.
R:march
O:Tealby,Lincolnshire
Z:VMP/R.Greig, 2009
K:F
[V:1]|:f4c3d|c>BA>GF3F|A>Fc>A f>ca>f|g2g>gg4|
[V:2]|:A4c3d|c>BA>GF3F|F>CA>F c>Af>c|e2e>ee4|
[V:1]f4c3d|c/d/c/B/ A/B/A/G/F2 c/d/e/f/|g3f e>dc>=B|c2c>cc4:|
[V:2]A4c3d|z8|e3d c>FE>D|E2E>EE4:|
[V:1]|:g3e c>cf>a|g3e c>cf>f|b>gb>g g>fa>f|g>fe>d c>de>f|
[V:2]|:G3E C>CF>A|G3E C>CF>A|B>GB>G A>FA>F|G>FE>D C>DE>F|
[V:1]g3e c>cf>a|g>fe>dc2f>a|b>gb>g a>fa>f|g2g>gg4|
[V:2]G3EC>CF>A|G>FE>DC2F>A|B>GB>G f>cf>c|e2e>ee4|
[V:1]f4 c3d|c/d/c/B/ A/B/A/G/ F3f|A>Fc>A f>ca>f|g2g>gg4|
[V:2]A4c3d|z8|F>CA>F c>Af>c|e2e>ee4|
[V:1]a3g f>fg>a|b>c’b>ag2a>b|c’2a>f g>fg>a|f2f>ff4:|
[V:2]f3e d>ce>f|g>ag>f e2f>g|a2f>c B>AB>c|A2A>AA4:|

